assets/img/slider-cards/ev-2.svg

<svg width="60" height="60" viewBox="0 0 60 60" fill="none" xmlns="http://www.w3.org/2000/svg">
<path d="M47.2267 12.7733C44.9668 10.5071 42.2818 8.709 39.3258 7.48215C36.3697 6.2553 33.2007 5.62378 30.0001 5.62378C26.7996 5.62378 23.6305 6.2553 20.6745 7.48215C17.7185 8.709 15.0335 10.5071 12.7736 12.7733C10.5073 15.0333 8.70924 17.7182 7.48239 20.6743C6.25554 23.6303 5.62402 26.7994 5.62402 29.9999C5.62402 33.2004 6.25554 36.3695 7.48239 39.3255C8.70924 42.2816 10.5073 44.9665 12.7736 47.2265C15.0335 49.4927 17.7185 51.2908 20.6745 52.5177C23.6305 53.7445 26.7996 54.376 30.0001 54.376C33.2007 54.376 36.3697 53.7445 39.3258 52.5177C42.2818 51.2908 44.9668 49.4927 47.2267 47.2265C49.493 44.9665 51.291 42.2816 52.5179 39.3255C53.7447 36.3695 54.3763 33.2004 54.3763 29.9999C54.3763 26.7994 53.7447 23.6303 52.5179 20.6743C51.291 17.7182 49.493 15.0333 47.2267 12.7733ZM30.0001 40.0546C29.0794 39.0021 27.8819 38.2289 26.5437 37.8228C25.2055 37.4168 23.7802 37.3943 22.4298 37.7577L26.0158 29.9999H33.9845L37.5705 37.7577C36.2201 37.3943 34.7948 37.4168 33.4566 37.8228C32.1184 38.2289 30.9209 39.0021 30.0001 40.0546ZM39.3751 48.3749C37.033 49.5591 34.4885 50.2906 31.8751 50.5312V44.9999C31.8751 44.0053 32.2702 43.0515 32.9735 42.3482C33.6768 41.645 34.6306 41.2499 35.6251 41.2499C36.6197 41.2499 37.5735 41.645 38.2768 42.3482C38.9801 43.0515 39.3751 44.0053 39.3751 44.9999V48.3749ZM44.5783 44.578C44.1095 45.0468 43.6173 45.4921 43.1251 45.914V41.2499C43.1183 40.9766 43.0628 40.7068 42.9611 40.453L31.7111 16.078H31.6876C31.6576 16.0031 31.6182 15.9322 31.5705 15.8671C31.5705 15.8436 31.5705 15.8436 31.547 15.8202L31.4298 15.6561H31.4064C31.3578 15.5957 31.3028 15.5407 31.2423 15.4921H31.1955L31.0314 15.3515H30.9845L30.797 15.2343H30.7736L30.5626 15.164H30.4923L30.2814 15.1171H29.7189L29.4845 15.164H29.4376L29.2501 15.2343H29.2033L28.9923 15.328H28.9689L28.8048 15.4686H28.758L28.5939 15.6327H28.5705L28.4533 15.7968L28.4064 15.8436C28.3763 15.9186 28.337 15.9895 28.2892 16.0546L23.1095 27.3046L17.0392 40.453C16.9375 40.7068 16.882 40.9766 16.8751 41.2499V45.914C16.383 45.4921 15.8908 45.0468 15.422 44.578C12.5359 41.6942 10.5699 38.0192 9.77268 34.0179C8.97549 30.0166 9.38295 25.8687 10.9435 22.099C12.5041 18.3293 15.1476 15.1072 18.5398 12.8401C21.9319 10.5731 25.9202 9.363 30.0001 9.363C34.0801 9.363 38.0684 10.5731 41.4605 12.8401C44.8527 15.1072 47.4962 18.3293 49.0568 22.099C50.6173 25.8687 51.0248 30.0166 50.2276 34.0179C49.4304 38.0192 47.4644 41.6942 44.5783 44.578Z" fill="#00A0E3"/>
</svg>

<svg width="60" height="60" fill="none" xmlns="http://www.w3.org/2000/svg"><path d="M47.227 12.773a24.329 24.329 0 00-34.453 0 24.328 24.328 0 000 34.454 24.33 24.33 0 0034.453 0 24.329 24.329 0 000-34.454zM30 40.055a7.477 7.477 0 00-7.57-2.297L26.016 30h7.968l3.587 7.758A7.477 7.477 0 0030 40.055zm9.375 8.32a20.86 20.86 0 01-7.5 2.156V45a3.75 3.75 0 017.5 0v3.375zm5.203-3.797a25.8 25.8 0 01-1.453 1.336V41.25a2.296 2.296 0 00-.164-.797l-11.25-24.375h-.023a.963.963 0 00-.117-.21c0-.024 0-.024-.024-.048l-.117-.164h-.024a1.074 1.074 0 00-.164-.164h-.047l-.164-.14h-.046l-.188-.118h-.023l-.211-.07h-.07l-.212-.047h-.562l-.235.047h-.046l-.188.07h-.047l-.21.094h-.024l-.164.14h-.047l-.164.165h-.024l-.117.164-.047.047a.961.961 0 01-.117.21l-5.18 11.25-6.07 13.149a2.298 2.298 0 00-.164.797v4.664a25.832 25.832 0 01-1.453-1.336 20.626 20.626 0 1129.156 0z" fill="#00A0E3"/></svg>
